X: 9
T: Seamus Cooley's
Z: jamesa
S: https://thesession.org/tunes/414#setting48026
R: jig
M: 6/8
L: 1/8
K: Gmaj
A|:BAB GED|B,DE D2B,|DEG AGE|A2B AGA|
BAB G2D|B,DE D2B,|DEG AGE|GAG G2 A:|
|:B2A GBd|ede g2e|d2B AGE|ABA AGA|
[1 BAB GBd|ede g2e|dBG AGE|GAG G2 A:|
[2 BAB GED|B,DE D2B,|DEG AGE|GAG G2 A||

